X:0369
T:Aire de l'Opera Francoise.
N:Ah vous dirai-je maman
N:Twinkle Twinkle Little Star
M:C
L:1/8
Q:1/4=132
I: :: :: :: ::
Z:Jack Campin * www.campin.me.uk * 2009
K:G
G2G2 d2d2|efge {e}d4  |c2c2 B2B2|AGAB (G2G2):|
d2d2 c2c2|B2B2    A4  |d2d2 c2c2|B2B2  A4    |
G2G2 d2d2|efge    d4  |c2c2 B2B2|AGAB  G4   :|
BGBG dBdB|efge    d4  |cAcA BGBG|AGAB  G4   :|
dBdB cAcA|BGBG    B2A2|dBdB cAcA|BGBG TB2A2  |
BGBG dBdB|efge {e}d4  |cAcA BGBG|AGAB  G4   :|

